X: 36
T:The Humours of Glin
M:6/8
L:1/8
R:jig
Z:Barney
K:D
(3Bcd B BAF|Adc d2 A|~B3 BAF|AFE EFA|
(3Bcd B BAF|Adc d2 A|{_G}-=G3 FGF|EFE D2A|
~B3 BAF|Adc d2A|~B3 BAF|AFE EFA|
(3Bcd B BAF|Adc d2A|GAG FGF|EFE D2E||
DFA d2 e|~f3 ecA|gfe fdB|AFA B2A|
Adf ~a3|abf a2f|gfe fdB|AFA B2g|
fdc d2g|fdf ecA|gfe fdB|AFA ~B3|
Adf ~a3|abf a2f|gfe fdB|AFA B2A||
